lib/preview_tmp/nrk-logo-preview-nrk-nyheter-with-bg.svg

<svg width="133" height="28" viewBox="0 0 133 28" fill="none" xmlns="http://www.w3.org/2000/svg">
<rect width="133" height="28" fill="#1767CE"/>
<path d="M6.66663 21V7.00129H11.26V21H6.66663ZM17.5094 9.22926L20.151 21H15.124L11.9697 7.00129H14.7892C15.4357 6.9929 16.063 7.22081 16.5535 7.64214C17.0449 8.0458 17.3824 8.60617 17.5094 9.22926ZM20.8411 21V7.00129H25.4345V21H20.8411ZM28.9038 12.3248C28.4089 12.3296 27.9218 12.2001 27.4946 11.9501C27.073 11.7065 26.7229 11.3563 26.4793 10.9347C26.229 10.5074 26.0995 10.0202 26.1044 9.52506C26.0988 9.03289 26.2284 8.54863 26.4793 8.12519C26.7255 7.70818 27.0752 7.3618 27.4946 7.11963C27.922 6.86994 28.4089 6.74045 28.9038 6.74497C29.3959 6.73967 29.8799 6.86927 30.3035 7.11963C30.7187 7.36392 31.0647 7.71001 31.309 8.12519C31.5596 8.54875 31.6892 9.03293 31.6838 9.52506C31.6884 10.0202 31.5589 10.5073 31.309 10.9347C31.0673 11.3545 30.7209 11.7043 30.3035 11.9501C29.8799 12.201 29.3955 12.3306 28.9032 12.3248H28.9038ZM32.3935 21V7.00129H36.9873V21H32.3935ZM42.8027 14.6513C42.8156 14.6649 42.9141 14.8259 43.0983 15.1343C43.2826 15.4428 43.5224 15.8372 43.8179 16.3174C44.1136 16.7973 44.4257 17.3067 44.754 17.8454C45.0824 18.384 45.3913 18.8934 45.6809 19.3734C45.9694 19.8534 46.298 20.3956 46.6666 21H41.6198C41.3041 20.4874 41.0181 20.0241 40.7618 19.61C40.5056 19.196 40.2331 18.749 39.9444 18.2693C39.6551 17.7899 39.369 17.3233 39.0862 16.8694C38.8034 16.4155 38.5604 16.0179 38.3571 15.6766C38.153 15.3351 38.0116 15.105 37.9329 14.9865C37.7379 14.6924 37.6225 14.3527 37.5981 14.0007C37.6176 13.6628 37.7263 13.3362 37.9132 13.054C37.992 12.9225 38.1366 12.6892 38.3469 12.354C38.5572 12.0188 38.8036 11.6212 39.0862 11.1612C39.3688 10.7011 39.6549 10.2312 39.9444 9.75146C40.234 9.27169 40.5064 8.82146 40.7618 8.40084C41.0186 7.98066 41.3046 7.51404 41.6198 7.00097H46.6666L42.7629 13.3694C42.6421 13.5585 42.574 13.7764 42.5657 14.0007C42.5787 14.2361 42.6609 14.4624 42.8019 14.6513H42.8027Z" fill="white"/>
<path d="M62.0283 17.6489L53.6053 6.98715H52V21.001H53.863V10.3334L62.3061 21.001H63.9113V6.98715H62.0286L62.0283 17.6489Z" fill="#D4EEFC"/>
<path d="M73.7612 11.0334L73.7457 18.4253C73.6013 18.5091 73.4573 18.5897 73.3163 18.6621C73.0755 18.7856 72.8273 18.8942 72.5731 18.9874C72.3323 19.077 72.0834 19.1431 71.8299 19.1848C71.5711 19.2254 71.3093 19.2452 71.0473 19.244C70.6418 19.2602 70.239 19.1717 69.878 18.9871C69.5651 18.8065 69.3238 18.5245 69.1943 18.1881C69.0299 17.7566 68.9523 17.297 68.966 16.8357V10.7367L66.9446 11.0328V17.2301C66.9204 17.9784 67.0486 18.7238 67.3214 19.4213C67.5404 19.9652 67.9436 20.4156 68.4611 20.6944C69.049 20.9818 69.6989 21.1207 70.3534 21.0987C70.9 21.1024 71.4431 21.0124 71.959 20.8326C72.4679 20.6513 72.9483 20.3986 73.3856 20.0822C73.5062 19.9957 73.6254 19.9039 73.7443 19.8085L73.7424 20.6639C73.7424 21.6508 73.5111 22.4008 73.0487 22.914C72.5863 23.4272 71.8002 23.6837 70.6903 23.6837C70.3862 23.6837 70.0757 23.6705 69.7588 23.6439C69.4424 23.6179 69.128 23.5718 68.8174 23.5061C68.5069 23.4403 68.193 23.358 67.8757 23.2594C67.5584 23.1607 67.2413 23.0456 66.9244 22.914L67.1427 24.6706C67.407 24.7755 67.6843 24.8709 67.9748 24.9568C68.2652 25.0428 68.5625 25.1152 68.8666 25.174C69.1705 25.2332 69.4876 25.2792 69.8179 25.3121C70.1482 25.345 70.4853 25.3613 70.829 25.3611C71.5459 25.3732 72.2596 25.2632 72.9394 25.0358C73.5146 24.8416 74.044 24.5326 74.4951 24.1275C74.9164 23.7416 75.2451 23.2661 75.4567 22.7363C75.6808 22.1642 75.7918 21.5543 75.7837 20.9402L75.7635 10.7354L73.7612 11.0334Z" fill="#D4EEFC"/>
<path d="M86.4841 11.1318C85.9019 10.8372 85.254 10.6947 84.6014 10.7176C84.0196 10.7175 83.4414 10.8073 82.8873 10.9838C82.3242 11.1621 81.7876 11.4144 81.2916 11.7342C81.1423 11.8299 80.998 11.9315 80.8556 12.0397V6.099L78.8341 6.39507V21.001H80.8556V13.4165C81.0122 13.331 81.1727 13.2494 81.3408 13.175C81.6213 13.0517 81.9094 12.9462 82.2033 12.8592C82.4862 12.7755 82.7741 12.7095 83.0654 12.6618C83.3372 12.6168 83.6123 12.5937 83.8878 12.5927C84.2047 12.5861 84.5203 12.6362 84.8193 12.7408C85.0715 12.8315 85.2966 12.9843 85.4737 13.1849C85.6555 13.4026 85.7841 13.6593 85.8495 13.9349C85.9346 14.2836 85.9748 14.6416 85.9691 15.0004V21.0007H87.9903V14.5859C88.0168 13.8376 87.8884 13.0919 87.6134 12.395C87.3897 11.8599 86.992 11.415 86.4841 11.1318Z" fill="#D4EEFC"/>
<path d="M98.6728 12.2079C98.2923 11.7168 97.7903 11.3324 97.2159 11.0923C96.5778 10.8332 95.8936 10.7057 95.2046 10.7176C94.5104 10.7059 93.8215 10.8404 93.1831 11.1124C92.6025 11.3655 92.0849 11.7428 91.667 12.2174C91.2365 12.7163 90.9128 13.2973 90.7154 13.925C90.4895 14.6434 90.3793 15.3929 90.3887 16.1456C90.3606 17.0966 90.5608 18.0406 90.973 18.899C91.3497 19.6428 91.9581 20.2453 92.7071 20.6162C93.5861 21.0286 94.5505 21.2281 95.5217 21.1985C95.9888 21.2023 96.4557 21.1726 96.9186 21.1097C97.3055 21.054 97.6868 20.9649 98.0582 20.8432C98.4264 20.72 98.7844 20.5682 99.1287 20.3892L99.2671 18.8694C99.0161 18.9615 98.7617 19.0536 98.5041 19.1457C98.2464 19.2378 97.9789 19.3201 97.7014 19.3924C97.4216 19.4655 97.1367 19.5182 96.8492 19.55C96.5597 19.5831 96.2686 19.5997 95.9772 19.5997C95.4569 19.6081 94.9377 19.5517 94.4314 19.4319C94.023 19.3346 93.6451 19.1379 93.3318 18.8595C93.015 18.5592 92.7827 18.1815 92.6579 17.7641C92.5284 17.3412 92.4557 16.9032 92.4416 16.4614H99.604C99.7015 15.645 99.6647 14.8182 99.495 14.0136C99.3556 13.3594 99.0751 12.7433 98.6728 12.2079ZM93.6786 12.6812C94.1436 12.4002 94.6805 12.2598 95.2241 12.2769C95.7685 12.2498 96.306 12.4063 96.7501 12.7211C97.1448 13.0348 97.4266 13.4677 97.5528 13.9547C97.6516 14.3148 97.7003 14.6867 97.6975 15.06H92.4852C92.522 14.6664 92.6065 14.2787 92.7369 13.9053C92.9061 13.4048 93.2373 12.9742 93.6786 12.6812Z" fill="#D4EEFC"/>
<path d="M107.304 19.4118L106.967 19.4714C106.859 19.4906 106.75 19.5037 106.64 19.5108C106.534 19.5178 106.435 19.5204 106.343 19.5204C106.039 19.5288 105.737 19.468 105.461 19.3427C105.223 19.2306 105.026 19.0481 104.896 18.82C104.757 18.5625 104.689 18.2733 104.698 17.9812V12.5138H107.492L107.71 10.9347H104.698V7.81583L102.676 8.52673V10.9347H101.15L100.932 12.5138H102.676V18.3957C102.667 18.7879 102.728 19.1786 102.855 19.55C102.957 19.844 103.115 20.1156 103.32 20.3497C103.509 20.5581 103.738 20.726 103.994 20.8431C104.256 20.9628 104.532 21.0489 104.816 21.0994C105.097 21.1511 105.383 21.1776 105.668 21.1784C105.88 21.1784 106.088 21.1719 106.293 21.1589C106.498 21.146 106.686 21.1262 106.858 21.0994C107.029 21.0731 107.192 21.0435 107.343 21.0109C107.495 20.9783 107.624 20.9484 107.73 20.9218L107.849 19.2838C107.772 19.3135 107.692 19.3366 107.611 19.3529C107.518 19.3723 107.416 19.3924 107.304 19.4118Z" fill="#D4EEFC"/>
<path d="M117.302 12.2079C116.922 11.7168 116.42 11.3325 115.846 11.0924C115.207 10.8332 114.523 10.7057 113.834 10.7176C113.14 10.7059 112.451 10.8405 111.813 11.1124C111.232 11.3656 110.714 11.7429 110.296 12.2174C109.866 12.7162 109.542 13.2971 109.345 13.9247C109.119 14.6431 109.009 15.3925 109.019 16.1452C108.991 17.0963 109.191 18.0402 109.603 18.8987C109.98 19.6425 110.588 20.245 111.337 20.6158C112.216 21.0282 113.18 21.2277 114.152 21.1981C114.619 21.202 115.086 21.1723 115.548 21.1093C115.935 21.0537 116.317 20.9645 116.688 20.8429C117.056 20.7198 117.414 20.568 117.758 20.3889L117.897 18.8691C117.646 18.9612 117.392 19.0533 117.134 19.1454C116.876 19.2375 116.609 19.3197 116.332 19.3921C116.052 19.4651 115.767 19.5178 115.479 19.5497C115.19 19.5828 114.899 19.5994 114.607 19.5994C114.087 19.6077 113.568 19.5514 113.061 19.4316C112.653 19.3341 112.275 19.1375 111.962 18.8592C111.645 18.5587 111.413 18.1811 111.288 17.7638C111.158 17.3409 111.086 16.9029 111.072 16.4611H118.234C118.331 15.6447 118.295 14.8178 118.125 14.0132C117.985 13.3592 117.705 12.7432 117.302 12.2079ZM112.308 12.6812C112.773 12.4002 113.31 12.2597 113.854 12.2769C114.398 12.2499 114.936 12.4063 115.38 12.7211C115.775 13.0348 116.056 13.4677 116.182 13.9547C116.281 14.3147 116.33 14.6867 116.327 15.06H111.115C111.152 14.6664 111.236 14.2787 111.366 13.9053C111.536 13.4048 111.867 12.9743 112.308 12.6812Z" fill="#D4EEFC"/>
<path d="M124.853 10.8654C124.482 10.9643 124.128 11.1173 123.803 11.3193C123.464 11.5295 123.152 11.7778 122.871 12.0595C122.824 12.1059 122.779 12.1582 122.732 12.2072V10.7368L120.71 11.0328V21.0004H122.732V13.5438C122.882 13.4394 123.038 13.3425 123.198 13.2537C123.396 13.1449 123.602 13.0493 123.812 12.9674C124.017 12.888 124.225 12.819 124.437 12.7602C124.654 12.6998 124.876 12.6569 125.1 12.6319C125.341 12.6054 125.583 12.5987 125.824 12.6118L126.062 10.7568C125.655 10.7277 125.247 10.7644 124.853 10.8654Z" fill="#D4EEFC"/>
</svg>

<svg xmlns="http://www.w3.org/2000/svg" viewBox="0 0 133 28"><path fill="#1767CE" d="M0 0h133v28H0z"/><path fill="#fff" d="M6.667 21V7.001h4.593V21H6.667ZM17.509 9.23 20.151 21h-5.027L11.97 7.001h2.82a2.655 2.655 0 0 1 1.764.641c.49.404.828.964.955 1.587ZM20.841 21V7.001h4.593V21h-4.593Zm8.063-8.675a2.738 2.738 0 0 1-1.41-.375 2.777 2.777 0 0 1-1.015-1.015 2.735 2.735 0 0 1-.375-1.41 2.686 2.686 0 0 1 .375-1.4 2.812 2.812 0 0 1 3.825-1.005c.415.244.76.59 1.005 1.005.25.424.38.908.375 1.4.004.495-.125.982-.375 1.41a2.8 2.8 0 0 1-1.006 1.015c-.423.251-.908.38-1.4.375ZM32.394 21V7.001h4.593V21h-4.593Zm10.409-6.349c.013.014.111.175.295.483.185.309.424.703.72 1.183a366.453 366.453 0 0 1 1.863 3.056c.288.48.617 1.023.986 1.627H41.62a744.12 744.12 0 0 0-.858-1.39c-.256-.414-.529-.861-.818-1.34-.289-.48-.575-.947-.858-1.4a71.148 71.148 0 0 1-.729-1.193 20.758 20.758 0 0 0-.424-.69 2.04 2.04 0 0 1-.335-.986c.02-.338.128-.665.315-.947.079-.132.224-.365.434-.7a210.216 210.216 0 0 0 1.598-2.603c.289-.48.561-.93.817-1.35L41.62 7h5.047l-3.904 6.368c-.12.19-.189.407-.197.632.013.235.095.461.236.65Z"/><path fill="#D4EEFC" d="M62.028 17.649 53.605 6.987H52v14.014h1.863V10.333l8.443 10.668h1.605V6.987H62.03V17.65ZM73.761 11.033l-.015 7.392a9.61 9.61 0 0 1-.43.237c-.24.124-.489.232-.743.325-.24.09-.49.156-.743.198-.259.04-.52.06-.783.059a2.361 2.361 0 0 1-1.169-.257 1.577 1.577 0 0 1-.684-.799 3.506 3.506 0 0 1-.228-1.352v-6.1l-2.021.297v6.197a5.525 5.525 0 0 0 .376 2.191c.22.544.623.995 1.14 1.273a4.003 4.003 0 0 0 1.892.405 4.78 4.78 0 0 0 1.606-.266c.509-.182.99-.434 1.427-.75.12-.087.24-.18.358-.274l-.002.855c0 .987-.23 1.737-.693 2.25-.463.513-1.249.77-2.359.77-.304 0-.614-.014-.931-.04a7.528 7.528 0 0 1-.942-.138 10.532 10.532 0 0 1-1.893-.592l.219 1.757a9.746 9.746 0 0 0 2.675.641c.33.033.667.05 1.011.05a6.317 6.317 0 0 0 2.11-.326 4.467 4.467 0 0 0 1.556-.909c.421-.385.75-.86.962-1.39a4.752 4.752 0 0 0 .327-1.797l-.02-10.205-2.003.298ZM86.484 11.132a3.87 3.87 0 0 0-1.883-.414c-.581 0-1.16.09-1.714.266a6.648 6.648 0 0 0-2.031 1.056V6.099l-2.022.296v14.606h2.022v-7.585a6.503 6.503 0 0 1 1.347-.557c.283-.084.571-.15.862-.197a5.15 5.15 0 0 1 .823-.07c.317-.006.632.044.931.149.252.09.478.243.655.444.181.218.31.474.376.75.085.349.125.707.12 1.065v6h2.02v-6.414a5.444 5.444 0 0 0-.377-2.191 2.591 2.591 0 0 0-1.129-1.263ZM98.673 12.208a3.598 3.598 0 0 0-1.457-1.116 5.112 5.112 0 0 0-2.011-.374 4.945 4.945 0 0 0-2.022.394 4.32 4.32 0 0 0-1.516 1.105 4.833 4.833 0 0 0-.952 1.708 7.107 7.107 0 0 0-.326 2.22 5.954 5.954 0 0 0 .584 2.754 3.866 3.866 0 0 0 1.734 1.717 6.183 6.183 0 0 0 2.815.582c.467.004.934-.025 1.397-.088a6.747 6.747 0 0 0 2.21-.72l.138-1.52c-.25.091-.505.184-.763.276a9.503 9.503 0 0 1-.803.246c-.28.073-.564.126-.852.158-.29.033-.58.05-.872.05a6.273 6.273 0 0 1-1.546-.168 2.543 2.543 0 0 1-1.1-.572c-.316-.3-.548-.678-.673-1.096a4.993 4.993 0 0 1-.216-1.303h7.162a7.532 7.532 0 0 0-.109-2.447 4.602 4.602 0 0 0-.822-1.806Zm-4.994.473a2.817 2.817 0 0 1 1.545-.404 2.43 2.43 0 0 1 1.526.444c.395.314.677.747.803 1.234.099.36.147.732.145 1.105h-5.213a4.88 4.88 0 0 1 .252-1.155c.17-.5.5-.93.942-1.224ZM107.304 19.412l-.337.06c-.108.019-.217.032-.327.039-.106.007-.205.01-.297.01a2.001 2.001 0 0 1-.882-.178 1.276 1.276 0 0 1-.565-.523 1.658 1.658 0 0 1-.198-.839v-5.467h2.794l.218-1.58h-3.012V7.817l-2.022.71v2.409h-1.526l-.218 1.579h1.744v5.882c-.009.392.052.783.179 1.154.102.294.26.566.465.8.189.208.418.376.674.493.262.12.538.206.822.256.281.052.567.079.852.08.212 0 .42-.007.625-.02.205-.013.393-.033.565-.06.171-.026.334-.055.485-.088.152-.033.281-.063.387-.09l.119-1.637c-.077.03-.157.053-.238.069-.093.02-.195.04-.307.059ZM117.302 12.208a3.595 3.595 0 0 0-1.456-1.116 5.116 5.116 0 0 0-2.012-.374 4.944 4.944 0 0 0-2.021.394 4.323 4.323 0 0 0-1.517 1.105 4.832 4.832 0 0 0-.951 1.708 7.085 7.085 0 0 0-.326 2.22 5.958 5.958 0 0 0 .584 2.754 3.867 3.867 0 0 0 1.734 1.717 6.183 6.183 0 0 0 2.815.582c.467.004.934-.026 1.396-.089a6.74 6.74 0 0 0 2.21-.72l.139-1.52c-.251.092-.505.184-.763.276a9.616 9.616 0 0 1-.802.247c-.28.073-.565.126-.853.158-.289.033-.58.05-.872.05a6.285 6.285 0 0 1-1.546-.168 2.544 2.544 0 0 1-1.099-.573 2.496 2.496 0 0 1-.674-1.095 4.967 4.967 0 0 1-.216-1.303h7.162a7.539 7.539 0 0 0-.109-2.448 4.602 4.602 0 0 0-.823-1.805Zm-4.994.473a2.817 2.817 0 0 1 1.546-.404 2.431 2.431 0 0 1 1.526.444c.395.314.676.747.802 1.234.099.36.148.732.145 1.105h-5.212c.037-.394.121-.781.251-1.155.17-.5.501-.93.942-1.224ZM124.853 10.865a3.885 3.885 0 0 0-1.05.454c-.339.21-.651.459-.932.74-.047.047-.092.1-.139.148v-1.47l-2.022.296V21h2.022v-7.456a5.2 5.2 0 0 1 1.08-.576c.205-.08.413-.149.625-.208a4.22 4.22 0 0 1 1.387-.148l.238-1.855a3.781 3.781 0 0 0-1.209.108Z"/></svg>
